public/about/mobile-bg/center-a.svg

<svg preserveAspectRatio="none" width="100%" height="100%" overflow="visible" style="display: block;" viewBox="0 0 114.774 386.688" fill="none" xmlns="http://www.w3.org/2000/svg">
<g id="Center A" filter="url(#filter0_f_0_97)" style="mix-blend-mode:overlay">
<path d="M38.9048 85.0123C38.9048 82.304 34.6339 229.737 32.4985 303.792L30 356.688H84.774L84.2615 292.789L80.4818 85.0123L75.2927 292.789L74.0755 43.1183L66.7082 292.789L64.9785 43.1183L58.1878 292.789L56.1378 73.1635L52.4862 292.789L50.6924 219.581L48.4502 292.789L46.7846 30C44.82 114.352 40.8907 283.734 40.8907 286.442C40.8907 289.827 38.9048 88.3976 38.9048 85.0123Z" fill="var(--fill-0, #E0EFFF)"/>
</g>
<defs>
<filter id="filter0_f_0_97" x="0" y="0" width="114.774" height="386.688" filterUnits="userSpaceOnUse" color-interpolation-filters="sRGB">
<feFlood flood-opacity="0" result="BackgroundImageFix"/>
<feBlend mode="normal" in="SourceGraphic" in2="BackgroundImageFix" result="shape"/>
<feGaussianBlur stdDeviation="15" result="effect1_foregroundBlur_0_97"/>
</filter>
</defs>
</svg>

<svg xmlns="http://www.w3.org/2000/svg" fill="none" overflow="visible" preserveAspectRatio="none" style="display:block" viewBox="0 0 114.774 386.688"><g filter="url(#a)" style="mix-blend-mode:overlay"><path fill="var(--fill-0, #e0efff)" d="M38.905 85.012c0-2.708-4.271 144.725-6.407 218.78L30 356.688h54.774l-.513-63.899-3.78-207.777-5.188 207.777-1.218-249.67-7.367 249.67-1.73-249.67-6.79 249.67-2.05-219.625-3.652 219.625-1.794-73.208-2.242 73.208L46.785 30c-1.965 84.352-5.894 253.734-5.894 256.442 0 3.385-1.986-198.044-1.986-201.43"/></g><defs><filter id="a" width="114.774" height="386.688" x="0" y="0" color-interpolation-filters="sRGB" filterUnits="userSpaceOnUse"><feFlood flood-opacity="0" result="BackgroundImageFix"/><feBlend in="SourceGraphic" in2="BackgroundImageFix" result="shape"/><feGaussianBlur result="effect1_foregroundBlur_0_97" stdDeviation="15"/></filter></defs></svg>
